X:1
T:Title
%%score { ( 1 4 ) | ( 2 3 ) }
L:1/8
M:4/4
K:Db
V:1 treble nm="Grand Piano"
V:4 treble 
V:2 bass 
V:3 bass 
V:1
 z4 z2[Q:1/4=100] [FA]2 | [Fd]3 [Ac] [GB]2 [FA]2 | [GB]2 [FA]2 F2 D2 | [CE]2 [DF]2 [EG]2 [CA]2 | %4
[M:3/4] [DF]6 |[M:1/4] [DA]2 |[M:4/4] [Fd]3 [Ac] [GB]2 [FA]2 | [GB]2 [FA]2 F2 D2 | %8
 [CE]2 [CG]2 [DF]2 [CE]2 | [F,D]6 [A,DF]2 | [A,CE]3 [A,DF] [CEG]2 [CGA]2 | %11
 [DGB]2 [DFA]2 [A,DF]2[K:bass] [F,D]2 | [A,CE]3[K:treble] [CA] c2 d2 | %13
[M:9/8] c2 B- B [CA]2- [CA] [GA]2 |[M:4/4] [Fd]3 [Fd] [Fd]2 [Af]2 | e2 d2 c2 B2 | %16
 A2 d2 [Ec][Fd] [Ge]2 |[M:7/8] [Fd]-[Fd]-[Fd]- [Fd]3 z |[M:6/8] z [Ge]2- [Ge]3 | z [Gc]2- [Gc]3 | %20
 z [Fd]2- [Fd] [DF]2- | [DF] [FA]2- [FA]2 z | z [GB]2- [GB] [AB]2- | [AB] [=Ge]2- [Ge] d2- | %24
 d c2 z3 | c A,2 z3 | z [Fd]2- [Fd]3 | z [FA]2- [FA] z z | z e2- e [GA]2- | [GA] [Gc]2- [Gc]3 | %30
 A [Af]2 [Ge] [Fd]2 | [Fc] e2 d c2 | %32
 B A2 F [CF]2[Q:1/4=99][Q:1/4=97][Q:1/4=96][Q:1/4=94][Q:1/4=93][Q:1/4=91][Q:1/4=90][Q:1/4=88][Q:1/4=87][Q:1/4=85][Q:1/4=84][Q:1/4=82][Q:1/4=81][Q:1/4=79][Q:1/4=78][Q:1/4=76] | %33
[M:5/8] [CE]D- D3- | D z z z2 |] %35
V:2
 z4 z2 [D,D]2 | [D,A,]3 [D,D] [D,D]2 [D,D]2 | [D,D]2 [D,D]2 [D,A,D]2 [D,F,]2 | %3
 [A,,A,]2 [A,,A,]2 [A,,A,]2 [A,,A,]2 |[M:3/4] [D,A,]6 |[M:1/4] [D,F,]2 | %6
[M:4/4] [D,A,]3 [D,D] [D,D]2 [D,D]2 | [D,D]2 [D,D]2 [D,A,D]2 [D,F,]2 | %8
 [A,,A,]2 [A,,A,]2 [A,,A,]2 A,G, | D,6 D,2 | A,,3 A,, A,,2 A,,2 | D,2 D,2 D,2 D,2 | %12
 A,,3 [A,,E,][K:treble] [A,E]2 [A,F]2 | %13
[M:9/8][K:bass] [E,=G,E]2 [E,G,D]- [E,G,D] [A,,A,]2- [A,,A,] [A,C]2 | %14
[M:4/4] [D,A,]3 [D,A,] [D,A,]2 [D,D]2 | [G,B,G]2 [G,B,G]2 [=G,D_F]2 [G,DF]2 | %16
 [A,DF]2 [A,F]2[K:bass] [A,,A,]2 [A,,A,]2 |[M:7/8] [D,A,]-[D,A,]-[D,A,]- [D,A,]3 z | %18
[M:6/8] [D,D] [A,C]2 A, A,2 | A, A,2 A, A,2 | [A,CG] [D,A,]2 D, D,2 | D, [D,F,]2 D, D,2 | %22
 D, G,2 G, F,2 | F, [E,B,]2 E, E2- | [E,E] A,2 A, D2- | [E,=G,D] G,,2 z _G,F, | E, [D,A,]2 D, D,2 | %27
 [D,A,D] [D,F,]2 D, D,2 | [F,D][K:treble] G2- [A,G] A,2 | A, A,2 A, A,2 | %30
 [A,CG][K:bass] [D,D]2 [D,A,] [D,_C]2 | [D,_C] [G,B,G]2[K:treble] [G,B,G] [=G,D_F]2 | %32
 [=G,D_F] [A,D=F]2 [A,D][K:bass] [A,,A,]2 |[M:5/8] [A,,G,][D,F,]- [D,F,]3- | [D,F,] z z z2 |] %35
V:3
 x8 | x8 | x8 | x8 |[M:3/4] x6 |[M:1/4] x2 |[M:4/4] x8 | x8 | z4 z2 A,,2 | x8 | x8 | x8 | %12
 x4[K:treble] x4 |[M:9/8][K:bass] x9 |[M:4/4] x8 | x8 | x4[K:bass] x4 |[M:7/8] x7 |[M:6/8] x6 | %19
 x6 | x6 | x6 | x6 | z3 z [E,=G,]2 | z3 z [E,=G,]2 | z3 A,3 | x6 | x6 | z[K:treble] [A,C]2 z3 | %29
 x6 | x[K:bass] x5 | x3[K:treble] x3 | x4[K:bass] x2 |[M:5/8] x5 | x5 |] %35
V:4
 x8 | x8 | x8 | x8 |[M:3/4] x6 |[M:1/4] x2 |[M:4/4] x8 | x8 | x8 | x8 | x8 | x6[K:bass] x2 | %12
 x3[K:treble] x5 |[M:9/8] x9 |[M:4/4] x8 | x8 | x8 |[M:7/8] x7 |[M:6/8] .[FA]3 C C2 | %19
 [CGA] E2 E E2 | .A3 A, A,2 | .A,3 A, D2 | [DFA] D2 D =D2 | .=D3 .B,3 | =G, E2- [Ed] B2 | %25
 z [CA]2- [CA]3 | .[CGA]3 A, A,2 | .F3 A, [DFA]2 | .A3 C C2 | C E2 E E2 | x6 | x6 | x6 | %33
[M:5/8] x5 | x5 |] %35

